Catalina-light/actions/22/view-left-close.svg

<svg viewBox="0 0 22 22" xmlns="http://www.w3.org/2000/svg">
<defs>
<style id="current-color-scheme" type="text/css">.ColorScheme-Text {
        color:#363636
      }</style>
</defs>
<path class="ColorScheme-Text" d="m1.7093 3c-0.39346 0-0.70928 0.3368-0.70928 0.75391v14.492c0 0.41711 0.31582 0.75391 0.70928 0.75391h18.581c0.39346 0 0.70928-0.3368 0.70928-0.75391v-14.492c0-0.41711-0.31582-0.75391-0.70928-0.75391h-18.581zm11.7 1.3477h5.9912c0.23888 0 0.43109 0.20378 0.43109 0.45703v12.391c0 0.25326-0.19221 0.45703-0.43109 0.45703h-5.9912c-0.23888 0-0.4311-0.20377-0.4311-0.45703v-12.391c0-0.25325 0.19222-0.45703 0.4311-0.45703zm-8.2885 3.3184c0.14125 0 0.26228 0.0534 0.36109 0.1582l1.5567 1.6504 1.5549-1.6504c0.0988-0.10476 0.21991-0.1582 0.36109-0.1582 0.14112 0 0.26043 0.0534 0.35925 0.1582l0.72033 0.76367c0.0988 0.1047 0.14739 0.23119 0.14739 0.38086s-0.0486 0.2761-0.14739 0.38086l-1.5567 1.6504 1.5567 1.6504c0.0988 0.10476 0.14739 0.23119 0.14739 0.38086s-0.0486 0.2761-0.14739 0.38086l-0.72033 0.76367c-0.0988 0.10476-0.21813 0.1582-0.35925 0.1582-0.14118 0-0.26228-0.0535-0.36109-0.1582l-1.5549-1.6484-1.5567 1.6484c-0.0988 0.10476-0.21978 0.1582-0.36109 0.1582-0.14111 0-0.26049-0.0535-0.35925-0.1582l-0.72033-0.76367c-0.0988-0.10469-0.14739-0.23119-0.14739-0.38086s0.0486-0.2761 0.14739-0.38086l1.5567-1.6504-1.5567-1.6504c-0.0988-0.1047-0.14739-0.23119-0.14739-0.38086s0.0487-0.2761 0.14739-0.38086l0.72033-0.76367c0.0988-0.10476 0.21814-0.1582 0.35925-0.1582z" fill="#363636"/>
</svg>

<svg xmlns="http://www.w3.org/2000/svg" viewBox="0 0 22 22">
  <defs id="defs3051">
    <style type="text/css" id="current-color-scheme">
      .ColorScheme-Text {
        color:#4d4d4d
      }
      </style>
  </defs>
 <path 
     style="fill:currentColor;fill-opacity:1;stroke:none"      
	 class="ColorScheme-Text"
        d="M 1.70928,3 C 1.31582,3 1,3.3368 1,3.75391 L 1,18.24609 C 1,18.6632 1.31582,19 1.70928,19 l 18.58144,0 C 20.68418,19 21,18.6632 21,18.24609 L 21,3.75391 C 21,3.3368 20.68418,3 20.29072,3 L 1.70928,3 Z m 11.70045,1.34766 5.99116,0 c 0.23888,0 0.43109,0.20378 0.43109,0.45703 l 0,12.39062 c 0,0.25326 -0.19221,0.45703 -0.43109,0.45703 l -5.99116,0 c -0.23888,0 -0.4311,-0.20377 -0.4311,-0.45703 l 0,-12.39062 c 0,-0.25325 0.19222,-0.45703 0.4311,-0.45703 z M 5.12122,7.66602 c 0.14125,0 0.26228,0.0534 0.36109,0.1582 L 7.03905,9.47461 8.59396,7.82422 c 0.0988,-0.10476 0.21991,-0.1582 0.36109,-0.1582 0.14112,0 0.26043,0.0534 0.35925,0.1582 l 0.72033,0.76367 c 0.0988,0.1047 0.14739,0.23119 0.14739,0.38086 0,0.14967 -0.0486,0.2761 -0.14739,0.38086 L 8.47789,11 l 1.55674,1.65039 c 0.0988,0.10476 0.14739,0.23119 0.14739,0.38086 0,0.14967 -0.0486,0.2761 -0.14739,0.38086 L 9.3143,14.17578 c -0.0988,0.10476 -0.21813,0.1582 -0.35925,0.1582 -0.14118,0 -0.26228,-0.0535 -0.36109,-0.1582 L 7.03905,12.52734 5.48231,14.17578 c -0.0988,0.10476 -0.21978,0.1582 -0.36109,0.1582 -0.14111,0 -0.26049,-0.0535 -0.35925,-0.1582 L 4.04164,13.41211 c -0.0988,-0.10469 -0.14739,-0.23119 -0.14739,-0.38086 0,-0.14967 0.0486,-0.2761 0.14739,-0.38086 L 5.59838,11 4.04164,9.34961 C 3.94284,9.24491 3.89425,9.11842 3.89425,8.96875 c 0,-0.14967 0.0487,-0.2761 0.14739,-0.38086 L 4.76197,7.82422 c 0.0988,-0.10476 0.21814,-0.1582 0.35925,-0.1582 z"
     />
</svg>
